!!!OTL: Ninety-Nine Bottles of Beer on the Wall
!!!COM: unknown
!!!ODT: unknown
!!!YOR: self
!!!YOY: 2001
!!!AST: Occasional
!!!YEC: Brian Luke, 2001
**kern	**harm
*k[]	*k[]
*M6/8	*M6/8
*C:	*C:
*>A	*>A
=1	=1
8c	I
8c	.
8c	.
8G	.
8G	.
8G	.
=2	=2
8c	.
8c	.
8c	.
4.c	.
=3	=3
8d	V/V
8d	.
8d	.
8A	.
8A	.
8A	.
=4	=4
[4.d	.
4d]	.
8c	.
=5	=5
4B	V
8B	.
4.B	.
=6	=6
8B	.
8B	.
8B	.
4.B	.
=7	=7
8G	.
8G	.
8G	.
8G	V7
8A	.
8B	.
=8	=8
8c	I;
8c	.
8c	.
4.c	.
*-	*-
